X:112039282990317
T:2-5-2-4-5-6-10-12-7-8-8-9-9-4-5-10
%%setfont-1 Courier-Bold 8
T:$1K.516f::96:17:141:13:161:97:62:5:138:155:57:166:51:58:52:8::$0
T:$1Perm. No.: 112039282990317$0
M:3/8
L:1/8
Q:1/8=111
%%staves [1 2]
V:1 clef=treble
V:2 clef=bass
K:C
%1
[V:1]|: ecG |\
[V:2]|: C,2z |\
%2
[V:1] c/G/c/e/G/c/ |\
[V:2] [G,2E,2]z |\
%3
[V:1] d/e/f/d/c/B/ |\
[V:2] [G,2B,,2]G,, |\
%4
[V:1] (cGE) |\
[V:2] [E,2G,2]z |\
%5
[V:1] [d^F][d^F][d^F] |\
[V:2] C,C,C,   |\
%6
[V:1] g/^f/g/d/B/G/ |\
[V:2] [D,2B,,2][G,B,,] |\
%7
[V:1] e/c/B/G/A/^F/ \
[V:2] C,D,D,, \
%8a
[V:1]|1 [g2d2B2G2]z :|2
[V:2]|1 G,,G,/=F,/E,/D,/ :|2
%8b
[V:1] [g2d2B2G2]z |:\
[V:2] G,,B,/G,/^F,/E,/ |:\
%9
[V:1] [^fdA]!trill!f2 |\
[V:2] D,,/D,/^C,/D,/^C,/D,/ |\
%10
[V:1] g/b/g/d/B/G/ |\
[V:2] [D,2B,,2]z |\
%11
[V:1] ecG |\
[V:2] [E,/C,/]G,/[E,/C,/]G,/[E,/C,/]G,/ |\
%12
[V:1] d/b/g/d/B |\
[V:2] [B,2G,2]z |\
%13
[V:1] c/G/e/c/g/e/ |\
[V:2] [E,2C,2]z |\
%14
[V:1] gec |\
[V:2] [E,/C,/]G,/[E,/C,/]G,/[E,/C,/]G,/ |\
%15
[V:1] (d/^c/)d/f/G/B/ |\
[V:2] F,2G, |\
%16
[V:1] c2z :|]
[V:2] C,G,,C,, :|]
